X: 1
T: The Destitution
R: reel
M: 4/4
L: 1/8
K: Emin
DE~E2 cAB2|dcBc ABGA|DE~E2 cAB2|AG~F2 ABB2|
DE~E2 cAB2|dcBc ABGA|E2(3FGA G2Ac|BAFA BEE2||
Bede bege|Be~e2 fga2|Bede bege|BcBA GAFA|
Bede bege|Be~e2 fga2|bc'ba gfed|BcBA GAFA||


Tune 673	Setting 27948

